X:99
T:Lady Finchs. EHo.099
M:3/4
L:1/8
Q:1/4=110
S:Edward Holmes MS, East Riding Archives, Beverley DDX114/21
R:Minuet
Z:Village Music Project. R.Greig 2016
K:D
d4 (fd)|A2F2D2|A4(FD)|A,6|
a2 (fd)(ge)|dcBAd2|e2gefd|(fe)dcBA|
d4(fd)|A2F2D2|A4(FD)|A,6|
{E}c2d2B2|e2>f2d2|c2edcB|e2>f2d2|
c2a2[^g2B2]|
{^gB2}[a6c6]:|
|:(E4F2)& A,6|GE ec AG|(F4G2) & A6|
AF fe AF|A2A2A2|(AG)(GF)F2|A2 BAGF|
{F2}E6 &A,6|"_f"d4 (fd)|A2F2D2|A4 (FD)|
A,6|(F4G2) &A,6|ABAGF2|(D3E/F/ GA)|
Bcdefg|a2d2c2|{c}d6:|

